X:34
T:Machias Seal Island
R:strathspey
C:Paul S. Cranford
O:20th Century Cape Breton
D:The Lighthouse, Cranford Publications
B:The Lighthouse Collection, ISBN 0-9691181-5-5
N:Contacts ...
N:..... Cranford Publications <http://www.cranfordpub.com>
Z:This abc transcription is for personal use only,
Z:provided this notice remains attached.
Z:Used by permission of the composer and publisher.
Z:Paul Stewart Cranford <psc@cranfordpub.com>
Q:244
L:1/8
M:C
K:Gmix
c|B<dd>c B<GG>_B|A<cc>B A<FF>A|B<dd>c B<G (3G(A_B)|A<F c>A G2 G>A|!
B<dd>c B<GG>_B|A<cc>B A<FF>A|G/A/B/c/ d>c B<Gd>_B|A>FC<A, G,/G,/G, G,||!
A|G/A/B/c/ d>g e<dd>B|c>aB>g A<Fc>A|G/A/B/c/ d>g e<dd>_B|A<F c>A G2 G>A|!
G/A/B/c/ d>g e<dd>B|c>aB>g A<Fc>A|(3GAB (3ABc (3Bcd (3cde|f<Fc>A G2 G|]!

